X: 14888
T: Gatehouse Maid, The
R: reel
M: 4/4
K: Gmajor
|:G2 BG E2 AG|FDFA dcBA|GABG EcAG|FDEF G2 (3DEF|
G2 BG E2 AG|FDFA dcBA|GABG EcAG|FDEF G3 A:|
|:BddB cd (3efg|dedc BGGA|BddB cd (3efg|dcBA G3 A|
BddB cd (3efg|dedc BGGA|Bdfa gedc|BGAF GFED:|

